X:704
T:Unos geyos negros vi (CT 436)
C:Tradicional
S:Msica Tradicional Asturiana, (C) Tello & Tito. Asturies, 2001.
S:http://pagina.de/MusTradAst <telloytito@asturies.org>
N:Cancin de empleo indeterminado, transcrita en Llanuces, ayuntamiento de Quirs.
A:Asturies
O:Llanuces (Quirs)
Z:Cancioneru de Torner 436
M:6/8
L:1/8
Q:3/8=80
K:Cm
G
|GGG c2 B|(B/A/)G2-G2 G|GGG c2 B|(B/A/)G2-GzG|
ccc e2 d|(c B2-) B2 B|ccB c2 B|A G2-G ||
W:Unos ojos negros vi,
W:desque los vi dije luego:
W:tanto luto para m,
W:no s cmo no me muero.
W:
